X: 8
T: Skating
C: Edward Huws Jones
M: 6/8
K: A
L: 1/8
Q: 3/8=50 Waltz
!mf! A3 A3 | B3 B3 | c3 c3 | B3 B3 | A3 A3 | B3 B3 |
w: Ska-ting, ska-ting, so e-la-ting, ska-ting, ska-ting,
c3 B3 | A3 z3 !fine! |] z3 z3 | !f!vc3 c3 | B3 B3 | c3 c3 | !diminuendo(! B3 B3 !diminuendo)! |
w: here we go. Flash-ing past we glide so fast we're
e3 e3 | e3 e3 | !crescendo(!eee eee !crescendo)! | !f!e z z \
w: near-ly fly-ing. if we're not care-ful we'll fall:
% percussion
[K:none] B z z | z4 |]
w: WHOOPS!
